src/icons/github.inline.svg

<svg width="32" height="30" viewBox="0 0 32 30" fill="none" xmlns="http://www.w3.org/2000/svg">
<g clip-path="url(#clip0)">
<path fill-rule="evenodd" clip-rule="evenodd" d="M16 0C7.44172 0 0.5 6.88679 0.5 15.3774C0.5 22.1698 4.96933 27.9245 11.0552 30C11.816 30.0943 12.1012 29.6226 12.1012 29.2453C12.1012 28.8679 12.1012 27.9245 12.1012 26.6038C7.82209 27.5472 6.87117 24.5283 6.87117 24.5283C6.20552 22.7359 5.15951 22.2642 5.15951 22.2642C3.73313 21.3208 5.2546 21.3208 5.2546 21.3208C6.77607 21.4151 7.6319 22.9245 7.6319 22.9245C9.05828 25.283 11.2454 24.6226 12.1012 24.2453C12.1963 23.2075 12.6718 22.5472 13.0521 22.1698C9.62884 21.7925 6.01534 20.4717 6.01534 14.5283C6.01534 12.8302 6.58589 11.5094 7.6319 10.3774C7.53681 10.0943 6.96626 8.49057 7.82209 6.41509C7.82209 6.41509 9.15338 6.03774 12.1012 8.01887C13.3374 7.64151 14.6687 7.54717 16 7.54717C17.3313 7.54717 18.6626 7.73585 19.8988 8.01887C22.8466 6.03774 24.1779 6.41509 24.1779 6.41509C25.0337 8.49057 24.4632 10.0943 24.3681 10.4717C25.319 11.5094 25.9847 12.9245 25.9847 14.6226C25.9847 20.566 22.3712 21.7925 18.9479 22.1698C19.5184 22.6415 19.9939 23.5849 19.9939 25C19.9939 27.0755 19.9939 28.6792 19.9939 29.2453C19.9939 29.6226 20.2791 30.0943 21.0399 30C27.2209 27.9245 31.5951 22.1698 31.5951 15.3774C31.5 6.88679 24.5583 0 16 0Z" fill="#1E0D26"/>
</g>
<defs>
<clipPath id="clip0">
<rect width="31" height="30" fill="white" transform="translate(0.5)"/>
</clipPath>
</defs>
</svg>

<svg xmlns="http://www.w3.org/2000/svg" width="32" height="30" viewBox="0 0 32 30" fill="none">
  <g clip-path="url(#github_inline_svg__clip0)">
    <path fill-rule="evenodd" clip-rule="evenodd" d="M16 0C7.442 0 .5 6.887.5 15.377.5 22.17 4.97 27.924 11.055 30c.761.094 1.046-.377 1.046-.755v-2.641c-4.279.943-5.23-2.076-5.23-2.076-.665-1.792-1.711-2.264-1.711-2.264-1.427-.943.095-.943.095-.943 1.521.094 2.377 1.603 2.377 1.603 1.426 2.359 3.613 1.699 4.47 1.321.094-1.038.57-1.698.95-2.075-3.423-.378-7.037-1.698-7.037-7.642 0-1.698.57-3.019 1.617-4.15-.095-.284-.666-1.887.19-3.963 0 0 1.331-.377 4.28 1.604 1.235-.377 2.567-.472 3.898-.472s2.663.189 3.899.472c2.948-1.981 4.279-1.604 4.279-1.604.856 2.076.285 3.68.19 4.057a6.075 6.075 0 011.617 4.15c0 5.944-3.614 7.17-7.037 7.548.57.471 1.046 1.415 1.046 2.83v4.245c0 .378.285.85 1.046.755 6.18-2.076 10.555-7.83 10.555-14.623C31.5 6.887 24.558 0 16 0z" fill="#1E0D26"></path>
  </g>
  <defs>
    <clipPath id="github_inline_svg__clip0">
      <path fill="#fff" transform="translate(.5)" d="M0 0h31v30H0z"></path>
    </clipPath>
  </defs>
</svg>
